X:1
T: The Jolly TInker
P:O'Neill's version
R:Reel
Q: 232
K:D
M:4/4
L:1/8
|:A3F GF GB|A2 af ge dB|AB AF GF GB|1dB GB de dB:|2dB GB d2 ((3Bcd) |
|:ed ef g2 ef|g2 af gf ed|ed ((3efg) ag eg|a2 bg ag ed:|
|:ea ag ed Bd|ea ag ((3efg) dg|ea ag ef ge|dB GB d2 ((3Bcd) :|
|:ed gd ed ((3Bcd) |ed fd e2 ((3Bcd) |ed gd ef ge|dB GB d2 Bd:|
eA ((3AAA) ed Bd|ed ef ge fd|eA ((3AAA) ef ge|dB GB d2 Bd|
ea ag ed Bd|ed ef ge fd|ef gb af ge|dB GB d2 d2||
